X: 137
T: No_70_Song_of_the_Dawn.krn
N: Derived from No_70_Song_of_the_Dawn.krn
%%abc-version 2.0
%%abcx-abcm2ps-target-version 5.9.1 (29 Sep 2008)
%%abc-creator hum2abc beta
%%abcx-conversion-date 2019/03/15 08:37:56
%%humdrum-veritas 911900896
%%humdrum-veritas-data 1338192045
%%linebreak <none>
%%barnumbers 0
L: 1/8
M: 2/4
K: G clef=bass
[K:clef=bass][M:2/4]B,2B,3/A,/ | 
G,2G,2 | 
B,2B,3/A,/ | 
G,3/D,/ E,3/D,/ | 
E,2D,3/D,/ | 
B,,3/B,,// z// E,3/E,/ | 
E,/E,3/ E,3/D,/ | 
E,2D,3/D,/ | 
B,, z (3E,D,E, | 
E,D, B,, z ||  
[M:3/4]E,D, D,/D,/D, D,/D,/D,/B,,/ | 
E,/E,/E,/E,/-E,2z2 |]  



